plasma/desktoptheme/Win7Explore-dark/icons/manjaro.svg

<?xml version="1.0" encoding="UTF-8" standalone="no"?>
<svg
   xmlns:dc="http://purl.org/dc/elements/1.1/"
   xmlns:cc="http://creativecommons.org/ns#"
   xmlns:rdf="http://www.w3.org/1999/02/22-rdf-syntax-ns#"
   xmlns:svg="http://www.w3.org/2000/svg"
   xmlns="http://www.w3.org/2000/svg"
   xmlns:sodipodi="http://sodipodi.sourceforge.net/DTD/sodipodi-0.dtd"
   xmlns:inkscape="http://www.inkscape.org/namespaces/inkscape"
   id="svg"
   width="22"
   height="22"
   version="1.1"
   sodipodi:docname="manjaro.svg"
   inkscape:version="1.0.1 (3bc2e813f5, 2020-09-07)">
  <sodipodi:namedview
     pagecolor="#ffffff"
     bordercolor="#666666"
     borderopacity="1"
     objecttolerance="10"
     gridtolerance="10"
     guidetolerance="10"
     inkscape:pageopacity="0"
     inkscape:pageshadow="2"
     inkscape:window-width="1920"
     inkscape:window-height="966"
     id="namedview15"
     showgrid="true"
     inkscape:zoom="13.354676"
     inkscape:cx="13.538777"
     inkscape:cy="-23.763074"
     inkscape:window-x="0"
     inkscape:window-y="36"
     inkscape:window-maximized="1"
     inkscape:current-layer="svg"
     inkscape:document-rotation="0">
    <inkscape:grid
       type="xygrid"
       id="grid840" />
  </sodipodi:namedview>
  <metadata
     id="metadata23">
    <rdf:RDF>
      <cc:Work
         rdf:about="">
        <dc:format>image/svg+xml</dc:format>
        <dc:type
           rdf:resource="http://purl.org/dc/dcmitype/StillImage" />
        <dc:title />
      </cc:Work>
    </rdf:RDF>
  </metadata>
  <defs
     id="defs5">
    <style
       id="current-color-scheme"
       type="text/css"> .ColorScheme-Text { color:#363636; } </style>
  </defs>
  <g
     id="22-22-manjaro-settings-manager"
     class="ColorScheme-Text"
     fill="currentColor">
    <rect
       width="22"
       height="22"
       fill-opacity="0"
       id="rect7" />
    <path
       d="m6 3c-1.662 0-3 1.338-3 3v10c0 1.662 1.338 3 3 3h1v-12h6v-4h-7zm9 0v16h1c1.662 0 3-1.338 3-3v-10c0-1.662-1.338-3-3-3h-1zm-6 6v10h4v-10h-4z"
       id="path9" />
  </g>
  <g
     id="manjaro-settings-manager"
     transform="translate(-4,-39)"
     class="ColorScheme-Text"
     fill="currentColor">
    <path
       id="path12"
       d="M 0 -35 L 0 -32.427734 L 0 -32 L 0 -14 L 0 -13.572266 L 0 -11 L 2.5722656 -11 L 3 -11 L 7 -11 L 7 -28 L 15 -28 L 15 -35 L 3 -35 L 2.5722656 -35 L 0 -35 z M 17 -35 L 17 -11 L 21 -11 L 21.427734 -11 L 24 -11 L 24 -13.572266 L 24 -14 L 24 -32 L 24 -32.427734 L 24 -35 L 21.427734 -35 L 21 -35 L 17 -35 z M 9 -26 L 9 -11 L 15 -11 L 15 -26 L 9 -26 z "
       transform="translate(4,39)" />
    <rect
       y="4.4409e-16"
       width="32"
       height="32"
       ry=".64"
       fill-opacity="0"
       id="rect14" />
  </g>
  <g
     id="16-16-manjaro-settings-manager"
     transform="translate(-299 -510.36)"
     class="ColorScheme-Text"
     fill="currentColor">
    <rect
       x="303"
       y="537.36"
       width="16"
       height="16"
       fill="none"
       id="rect17" />
    <path
       transform="translate(299 510.36)"
       d="m8 29c-1.108 0-2 0.892-2 2v8c0 1.108 0.892 2 2 2h1v-9h5v-3h-6zm7 0v12h1c1.108 0 2-0.892 2-2v-8c0-1.108-0.892-2-2-2h-1zm-5 4v8h4v-8h-4z"
       id="path19" />
  </g>
</svg>

<?xml version="1.0" encoding="UTF-8" standalone="no"?>
<svg
   xmlns:dc="http://purl.org/dc/elements/1.1/"
   xmlns:cc="http://creativecommons.org/ns#"
   xmlns:rdf="http://www.w3.org/1999/02/22-rdf-syntax-ns#"
   xmlns:svg="http://www.w3.org/2000/svg"
   xmlns="http://www.w3.org/2000/svg"
   xmlns:sodipodi="http://sodipodi.sourceforge.net/DTD/sodipodi-0.dtd"
   xmlns:inkscape="http://www.inkscape.org/namespaces/inkscape"
   id="svg"
   width="22"
   height="22"
   version="1.1"
   sodipodi:docname="manjaro.svg"
   inkscape:version="1.0.1 (3bc2e813f5, 2020-09-07)">
  <sodipodi:namedview
     pagecolor="#ffffff"
     bordercolor="#666666"
     borderopacity="1"
     objecttolerance="10"
     gridtolerance="10"
     guidetolerance="10"
     inkscape:pageopacity="0"
     inkscape:pageshadow="2"
     inkscape:window-width="1920"
     inkscape:window-height="907"
     id="namedview15"
     showgrid="true"
     inkscape:zoom="4.721591"
     inkscape:cx="-36.711768"
     inkscape:cy="12.769852"
     inkscape:window-x="0"
     inkscape:window-y="70"
     inkscape:window-maximized="1"
     inkscape:current-layer="svg"
     inkscape:document-rotation="0"
     inkscape:snap-bbox="true"
     inkscape:bbox-nodes="true"
     inkscape:snap-bbox-edge-midpoints="true">
    <inkscape:grid
       type="xygrid"
       id="grid840" />
  </sodipodi:namedview>
  <metadata
     id="metadata23">
    <rdf:RDF>
      <cc:Work
         rdf:about="">
        <dc:format>image/svg+xml</dc:format>
        <dc:type
           rdf:resource="http://purl.org/dc/dcmitype/StillImage" />
        <dc:title />
      </cc:Work>
    </rdf:RDF>
  </metadata>
  <defs
     id="defs5">
    <style
       id="current-color-scheme"
       type="text/css"> .ColorScheme-Text { color:#363636; } </style>
  </defs>
  <g
     id="22-22-manjaro-settings-manager"
     class="ColorScheme-Text"
     fill="currentColor">
    <rect
       width="22"
       height="22"
       fill-opacity="0"
       id="rect7" />
    <path
       id="path9"
       d="M 3 3 L 3 6 L 3 16 L 3 19 L 6 19 L 7 19 L 7 7 L 13 7 L 13 3 L 6 3 L 3 3 z M 15 3 L 15 19 L 16 19 L 19 19 L 19 16 L 19 6 L 19 3 L 16 3 L 15 3 z M 9 9 L 9 19 L 13 19 L 13 9 L 9 9 z " />
  </g>
  <g
     id="manjaro-settings-manager"
     transform="translate(-4,-39)"
     class="ColorScheme-Text"
     fill="currentColor">
    <path
       id="path12"
       d="M 0 -35 L 0 -32.427734 L 0 -32 L 0 -14 L 0 -13.572266 L 0 -11 L 2.5722656 -11 L 3 -11 L 7 -11 L 7 -28 L 15 -28 L 15 -35 L 3 -35 L 2.5722656 -35 L 0 -35 z M 17 -35 L 17 -11 L 21 -11 L 21.427734 -11 L 24 -11 L 24 -13.572266 L 24 -14 L 24 -32 L 24 -32.427734 L 24 -35 L 21.427734 -35 L 21 -35 L 17 -35 z M 9 -26 L 9 -11 L 15 -11 L 15 -26 L 9 -26 z "
       transform="translate(4,39)" />
    <rect
       y="4.4409e-16"
       width="32"
       height="32"
       ry=".64"
       fill-opacity="0"
       id="rect14" />
  </g>
  <g
     id="16-16-manjaro-settings-manager"
     transform="translate(-299 -510.36)"
     class="ColorScheme-Text"
     fill="currentColor">
    <rect
       x="303"
       y="537.36"
       width="16"
       height="16"
       fill="none"
       id="rect17" />
    <path
       id="path19"
       d="M 6 29 L 6 31 L 6 39 L 6 41 L 8 41 L 9 41 L 9 32 L 14 32 L 14 29 L 8 29 L 6 29 z M 15 29 L 15 41 L 16 41 L 18 41 L 18 39 L 18 31 L 18 29 L 16 29 L 15 29 z M 10 33 L 10 41 L 14 41 L 14 33 L 10 33 z "
       transform="translate(299,510.36)" />
  </g>
</svg>
